X: 1794
T: the White Blanket   #2
T: an suisin ban
%S: s:2 b:12(6+6)
S: 1794 O'Neill's Music of Ireland
B: O'Neill's 1850 #1794
O: Cronin
Z: Robert Thorpe (thorpe@skep.com)
Z: ABCMUS 1.0
M: 2/4
L: 1/8
K: G
"^A"[|] (3(G/A/B/) \
| cE ED/E/ | GA/B/ c3/A/ | B/A/G/E/ \
[1,3 D/E/F/G/ | AA/B/ A :|\
[2,4 DE/F/ | GG G "^B":: (B/d/) | ee/f/ ed |
| g/e/d/B/ c3/A/ | B/A/G/E/ D/E/F/G/ | AA/B/ Ad/c/ \
| B/A/G/E/ D/E/F/A/ |[1,3 G/A/B/c/ d :|[2,4 GG/G/ G :|
